svgs/thin/dice-d8.svg

<svg xmlns="http://www.w3.org/2000/svg" viewBox="0 0 512 512"><!--! Font Awesome Pro 6.3.0 by @fontawesome - https://fontawesome.com License - https://fontawesome.com/license (Commercial License) Copyright 2023 Fonticons, Inc. --><path d="M512 256c0-8.638-3.259-17.27-9.868-23.88l-222.2-222.3C273.3 3.292 264.6 0 256 0C247.4 0 238.7 3.292 232.1 9.887L9.868 232.1C3.259 238.8 0 247.4 0 256C0 264.6 3.259 273.2 9.868 279.9l222.2 222.3C238.7 508.7 247.3 512 256 512s17.29-3.292 23.89-9.887l222.2-222.3C508.7 273.3 512 264.7 512 256zM248 493.9c-1.641-.838-3.258-1.742-4.601-3.085l-220.2-220.3l224.8 87.06V493.9zM248 340.4L17.02 250.1C17.83 248.2 19.07 245.6 21.23 243.5l222.2-222.2C244.7 19.9 246.4 18.1 248 18.16V340.4zM268.6 490.8c-1.336 1.336-2.953 2.235-4.586 3.073v-136.3l224.8-87.05L268.6 490.8zM264 340.4V18.17c1.641 .84 3.269 1.743 4.586 3.057l222.2 222.2C492.9 245.6 494.2 248.2 494.1 250.1L264 340.4z"/></svg>

<svg xmlns="http://www.w3.org/2000/svg" viewBox="0 0 512 512"><!-- Font Awesome Pro 6.0.0-alpha2 by @fontawesome - https://fontawesome.com License - https://fontawesome.com/license (Commercial License) --><path d="M512 256.035C512 247.397 508.695 238.747 502.086 232.136L279.906 9.908C273.312 3.313 264.593 0 256 0S238.688 3.313 232.094 9.908L9.914 232.136C3.305 238.747 0 247.373 0 256S3.305 273.253 9.914 279.864L232.094 502.092C238.688 508.687 247.313 512 256 512S273.312 508.687 279.906 502.092L502.086 279.864C508.695 273.3 512 264.673 512 256.035ZM248.008 493.86C246.367 493.022 244.75 492.117 243.407 490.775L23.179 270.501L248.008 357.562V493.86ZM248.008 340.373L17.019 250.95C17.831 248.219 19.074 245.604 21.226 243.451L243.407 21.223C244.727 19.904 246.36 18.998 248.008 18.158V340.373ZM268.593 490.777C267.257 492.114 265.64 493.012 264.008 493.85V357.562L488.813 270.512L268.593 490.777ZM264.008 340.373V18.167C265.648 19.007 267.277 19.91 268.593 21.225L490.774 243.451C492.883 245.564 494.157 248.18 494.993 250.95L264.008 340.373Z "></path></svg>
